src/assets/cells/natural_killer_cell.svg

<?xml version="1.0" encoding="UTF-8" standalone="no"?>
<svg height="100%" stroke-miterlimit="10" style="fill-rule:nonzero;clip-rule:evenodd;stroke-linecap:round;stroke-linejoin:round;" version="1.1" viewBox="0 0 419.58 297.675" width="100%" xmlns="http://www.w3.org/2000/svg">
<defs/>
<g id="Layer-Cyto" layerName="Layer Cyto">
<g opacity="1" layerName="(curve)">
<path d="M194.976 23.967L195.378 23.967C265.615 23.967 322.554 80.2468 322.554 149.671L322.554 149.671C322.554 219.096 265.615 275.376 195.378 275.376L194.976 275.376C124.739 275.376 67.8001 219.096 67.8001 149.671L67.8001 149.671C67.8001 80.2468 124.739 23.967 194.976 23.967Z" fill="#92283c" fill-rule="nonzero" opacity="1" stroke="none"/>
</g>
</g>
<g id="Layer-Nucleus" layerName="Layer Nucleus">
<path d="M184.933 61.4093L184.933 61.4093C237.88 61.4093 280.803 104.029 280.803 156.604L280.803 157.442C280.803 210.017 237.88 252.637 184.933 252.637L184.933 252.637C131.986 252.637 89.0636 210.017 89.0636 157.442L89.0636 156.604C89.0636 104.029 131.986 61.4093 184.933 61.4093Z" fill="#530f1c" fill-rule="nonzero" opacity="1" stroke="none"/>
<g opacity="1">
<path d="M93.1875 74.1562C91.5677 76.0845 90.008 78.0397 88.5938 80.125C86.8762 82.6574 85.3861 85.3427 83.875 88C82.7024 90.062 81.4595 92.0734 80.5 94.25C78.2604 99.3302 76.49 104.64 74.75 109.906C73.1006 114.898 71.2855 119.812 70.1875 124.969C69.5131 128.136 69.428 131.351 68.875 134.531C68.4569 136.936 67.8848 139.305 67.75 141.75C66.9512 156.237 69.4836 170.819 73.5312 184.688C75.5806 191.709 77.9392 198.728 80.9375 205.406C83.814 211.813 87.2896 217.934 91.125 223.812C93.3168 227.172 95.567 230.562 98.125 233.656C103.885 240.623 111.425 245.648 118.719 250.844C121.754 253.006 124.682 255.305 127.781 257.375C131.207 259.664 134.796 261.729 138.469 263.594C147.48 268.17 157.15 271.796 167.031 273.969C175.47 275.824 184.175 276.663 192.812 276.5C201.127 276.343 209.279 274.856 217.438 273.375C223.795 272.221 230.082 271.297 236.281 269.375C248.134 265.701 259.347 259.762 269.594 252.812C276.763 247.95 283.034 241.902 289 235.656C292.619 231.867 296.338 228.044 299.406 223.781C300.757 221.905 301.937 219.886 303.125 217.906C304.886 214.971 306.551 211.992 308.156 208.969C312.876 200.078 316.797 190.73 319.312 180.969C322.095 170.168 323.141 159.099 323.219 147.969C323.226 146.437 321.97 145.164 320.438 145.156C318.905 145.149 317.664 146.405 317.656 147.938C317.629 158.621 316.686 169.277 314.062 179.656C311.695 189.024 308.003 197.981 303.531 206.531C301.987 209.485 300.384 212.381 298.688 215.25C297.584 217.116 296.502 219.04 295.25 220.812C292.355 224.911 288.796 228.566 285.375 232.219C279.699 238.279 273.776 244.233 266.969 249.031C256.747 256.236 245.131 262.327 233.156 266C227.387 267.769 221.438 268.668 215.531 269.844C209.661 271.012 203.782 272.182 197.812 272.719C187.801 273.619 177.529 272.989 167.688 270.969C162.545 269.913 157.474 268.386 152.531 266.625C145.966 264.286 139.578 261.443 133.531 257.969C128.825 255.265 124.513 251.993 120.062 248.906C114.454 245.017 108.761 241.258 103.75 236.594C99.4117 232.555 95.974 227.682 92.6875 222.781C88.8288 217.027 85.3251 211.007 82.4062 204.719C80.8953 201.464 79.5849 198.116 78.3438 194.75C72.1375 177.919 67.8134 159.826 68.5938 141.781C68.7246 138.754 69.5596 135.844 69.9062 132.844C70.0304 131.77 70.0523 130.668 70.1562 129.594C70.3026 128.081 70.5447 126.583 70.8438 125.094C71.9406 119.631 73.8379 114.426 75.5 109.125C76.4767 106.01 77.532 102.939 78.6562 99.875C79.3343 98.0271 79.9766 96.1864 80.75 94.375C81.7791 91.9649 83.144 89.728 84.4062 87.4375C87.0093 82.7138 89.7658 78.3271 93.1875 74.1562Z" fill="#3b0811" stroke="none"/>
</g>
<g opacity="1">
<path d="M192.25 22.8125C175.312 23.5456 158.414 27.345 142.938 34.3125C136.387 37.2614 130.232 40.9642 124.219 44.875C113.323 51.9612 103.669 60.8728 95.75 71.1875C89.9709 78.7146 85.1394 87.0106 82.375 96.125C85.281 87.0812 90.2072 78.8805 96.0938 71.4688C104.126 61.3551 113.877 52.6718 124.812 45.8125C130.831 42.0374 136.995 38.4353 143.531 35.625C157.911 29.4427 173.504 26.0317 189.125 25.2812C199.554 24.7802 210.092 25.4271 220.312 27.625C235.207 30.8281 249.11 37.6214 261.531 46.3438C267.976 50.8693 273.992 55.9191 279.781 61.25C283.296 64.4867 286.76 67.8398 289.875 71.4688C294.471 76.8237 298.411 82.6906 302.062 88.7188C303.95 91.8347 305.824 94.9664 307.469 98.2188C309.201 101.644 310.689 105.215 311.938 108.844C314.49 116.26 316.169 124.029 316.844 131.844C317.063 134.377 317.112 136.897 317.156 139.438C317.203 142.136 317.73 144.863 317.5 147.562C317.379 149.09 318.504 150.41 320.031 150.531C321.559 150.653 322.91 149.527 323.031 148C323.249 145.1 322.721 142.208 322.656 139.312C322.394 127.639 320.378 116.082 316.188 105.156C314.975 101.996 313.618 98.8827 312.062 95.875C310.327 92.5193 308.343 89.2973 306.344 86.0938C302.99 80.7208 299.362 75.5123 295.25 70.6875C292.15 67.0505 288.782 63.687 285.312 60.4062C279.437 54.8501 273.163 49.7235 266.531 45.0938C252.793 35.5031 237.434 27.995 220.906 24.7812C211.499 22.9521 201.816 22.3985 192.25 22.8125Z" fill="#3b0811" stroke="none"/>
</g>
</g>
<g id="Layer-White" layerName="Layer White">
<g opacity="1">
<path d="M182.125 66.8125C179.995 66.8032 177.847 66.8776 175.719 67.0625C170.655 67.5025 165.726 68.566 160.875 70.0625C158.377 70.8576 157.017 73.5337 157.812 76.0312C158.608 78.5288 161.252 79.9201 163.75 79.125C167.432 77.9134 171.154 76.9838 175 76.4688C183.772 75.2942 192.61 76.166 201.281 77.6875C205.405 78.411 209.569 79.1793 213.594 80.3438C228.696 84.7129 242.562 92.4632 253 104.406C263.693 116.641 269.765 131.897 273.406 147.562C274.951 154.208 275.94 160.982 276.031 167.812C276.091 172.276 275.694 176.699 275.156 181.125C274.769 184.31 274.747 187.614 273.625 190.656C272.975 192.42 271.983 193.949 270.812 195.406C272.062 193.994 273.136 192.496 273.875 190.75C275.241 187.523 275.438 183.891 276.031 180.469C276.857 175.707 277.378 170.93 277.438 166.094C277.53 158.508 276.538 150.977 275 143.562C273.855 138.041 272.472 132.551 270.625 127.219C267.181 117.278 262.191 107.865 255.5 99.7188C247.608 90.1099 237.419 82.4034 226.188 77.0938C222.505 75.3528 218.672 73.9754 214.812 72.6875C210.322 71.1893 205.764 69.9247 201.125 68.9688C194.869 67.6795 188.516 66.8403 182.125 66.8125Z" fill="#ffffff" stroke="none"/>
</g>
<g opacity="1">
<path d="M169.031 68.3125C168.424 68.2073 167.763 68.2265 167.125 68.375C156.049 71.0431 145.305 75.0341 135.562 81C129.698 84.5911 124.173 88.9203 119.75 94.2188C116.832 97.715 114.555 101.682 112.25 105.594C107.882 113.008 104.117 120.794 101.844 129.125C99.8914 136.282 98.9802 143.79 98.6562 151.188C97.9024 168.401 100.851 185.963 107.5 201.875C114.704 219.114 126.53 234.704 143.031 243.938C147.842 246.63 152.929 248.689 158.219 250.219C153.02 248.485 148.019 246.245 143.344 243.375C127.564 233.687 116.533 217.97 110.219 200.781C104.475 185.145 102.37 168.108 103.906 151.531C104.55 144.589 105.726 137.596 107.938 130.969C109.875 125.163 112.722 119.72 115.781 114.438C118.587 109.593 121.477 104.665 125.219 100.469C128.948 96.2859 133.389 92.8127 138.125 89.8438C147.637 83.8814 158.37 80.0755 169.281 77.625C171.834 77.0309 173.438 74.4591 172.844 71.9062C172.398 69.9916 170.854 68.6281 169.031 68.3125Z" fill="#ffffff" stroke="none"/>
</g>
<path d="M182.598 61.2125L186.351 61.2125C237.961 61.2125 279.799 104.205 279.799 157.238L279.799 157.238C279.799 210.271 237.961 253.263 186.351 253.263L182.598 253.263C130.988 253.263 89.1495 210.271 89.1495 157.238L89.1495 157.238C89.1495 104.205 130.988 61.2125 182.598 61.2125Z" fill="none" opacity="1" stroke="#ffffff" stroke-linecap="round" stroke-linejoin="round" stroke-width="1.0662"/>
</g>
</svg>

<svg
  xmlns="http://www.w3.org/2000/svg"
  xmlnsvectornator="http://vectornator.io"
  strokeLinecap="round"
  strokeLinejoin="round"
  strokeMiterlimit="10"
  clipRule="evenodd"
  viewBox="0 0 419.58 297.675"
>
  <g vectornatorlayername="Layer 1">
    <path
      fill="#92283c"
      fillRule="evenodd"
      d="M194.976 23.967h.402c70.237 0 127.176 56.28 127.176 125.704 0 69.425-56.939 125.705-127.176 125.705h-.402c-70.237 0-127.176-56.28-127.176-125.705 0-69.424 56.939-125.704 127.176-125.704z"
    ></path>
    <path
      fill="#530f1c"
      fillRule="evenodd"
      d="M184.933 61.41c52.947 0 95.87 42.619 95.87 95.194v.838c0 52.575-42.923 95.195-95.87 95.195s-95.87-42.62-95.87-95.195v-.838c0-52.575 42.923-95.195 95.87-95.195z"
    ></path>
    <path
      fill="none"
      stroke="#fff"
      strokeWidth="1.066"
      d="M182.598 61.212h3.753c51.61 0 93.448 42.993 93.448 96.026h0c0 53.033-41.838 96.025-93.448 96.025h-3.753c-51.61 0-93.448-42.992-93.448-96.025h0c0-53.033 41.838-96.025 93.448-96.025z"
    ></path>
    <path
      fill="#fff"
      d="M169.031 68.313a4.846 4.846 0 00-1.906.062c-11.076 2.668-21.82 6.66-31.563 12.625-5.864 3.591-11.389 7.92-15.812 13.219-2.918 3.496-5.195 7.463-7.5 11.375-4.368 7.414-8.133 15.2-10.406 23.531-1.953 7.157-2.864 14.665-3.188 22.063-.754 17.213 2.195 34.775 8.844 50.687 7.204 17.239 19.03 32.829 35.531 42.063 4.811 2.692 9.898 4.751 15.188 6.281-5.199-1.734-10.2-3.974-14.875-6.844-15.78-9.688-26.811-25.405-33.125-42.594-5.744-15.636-7.849-32.673-6.313-49.25.644-6.942 1.82-13.935 4.032-20.562 1.937-5.806 4.784-11.249 7.843-16.531 2.806-4.845 5.696-9.773 9.438-13.969 3.729-4.183 8.17-7.656 12.906-10.625 9.512-5.963 20.245-9.769 31.156-12.219 2.553-.594 4.157-3.166 3.563-5.719a4.736 4.736 0 00-3.813-3.594z"
    ></path>
    <path
      fill="#fff"
      d="M182.125 66.813c-2.13-.01-4.278.065-6.406.25-5.064.44-9.993 1.503-14.844 3-2.498.795-3.858 3.47-3.063 5.968.796 2.498 3.44 3.89 5.938 3.094 3.682-1.212 7.404-2.141 11.25-2.656 8.772-1.175 17.61-.303 26.281 1.219 4.124.723 8.288 1.491 12.313 2.656 15.102 4.369 28.968 12.12 39.406 24.062 10.693 12.235 16.765 27.491 20.406 43.156 1.545 6.646 2.534 13.42 2.625 20.25.06 4.464-.337 8.887-.875 13.313-.387 3.185-.409 6.489-1.531 9.531-.65 1.764-1.642 3.293-2.813 4.75 1.25-1.412 2.324-2.91 3.063-4.656 1.366-3.227 1.563-6.859 2.156-10.281.826-4.762 1.347-9.539 1.407-14.375.092-7.586-.9-15.117-2.438-22.532-1.145-5.521-2.528-11.011-4.375-16.343-3.444-9.942-8.434-19.354-15.125-27.5-7.892-9.61-18.081-17.316-29.312-22.625-3.683-1.741-7.516-3.119-11.376-4.407-4.49-1.498-9.048-2.762-13.687-3.718-6.256-1.29-12.609-2.129-19-2.157z"
    ></path>
    <path
      fill="#3b0811"
      d="M192.25 22.813c-16.938.733-33.836 4.532-49.312 11.5-6.551 2.948-12.706 6.651-18.719 10.562A114.893 114.893 0 0095.75 71.188c-5.78 7.527-10.61 15.823-13.375 24.937 2.906-9.044 7.832-17.244 13.719-24.656 8.032-10.114 17.783-18.797 28.718-25.656 6.019-3.776 12.183-7.378 18.719-10.188 14.38-6.182 29.973-9.593 45.594-10.344 10.429-.5 20.967.146 31.187 2.344 14.895 3.203 28.798 9.996 41.219 18.719 6.445 4.525 12.461 9.575 18.25 14.906 3.515 3.237 6.979 6.59 10.094 10.219 4.596 5.355 8.536 11.222 12.187 17.25 1.888 3.116 3.762 6.247 5.407 9.5a84.581 84.581 0 014.469 10.625c2.552 7.416 4.231 15.185 4.906 23 .219 2.533.268 5.053.312 7.594.047 2.698.574 5.425.344 8.124a2.748 2.748 0 002.531 2.969c1.528.122 2.879-1.004 3-2.531.218-2.9-.31-5.792-.375-8.688-.262-11.673-2.278-23.23-6.468-34.156-1.213-3.16-2.57-6.273-4.126-9.281-1.735-3.356-3.719-6.578-5.718-9.781-3.354-5.373-6.982-10.582-11.094-15.407-3.1-3.637-6.468-7-9.938-10.28a163.831 163.831 0 00-18.781-15.313c-13.738-9.59-29.097-17.099-45.625-20.313-9.407-1.829-19.09-2.383-28.656-1.969z"
    ></path>
    <path
      fill="#3b0811"
      d="M93.188 74.156c-1.62 1.928-3.18 3.884-4.594 5.969-1.718 2.532-3.208 5.218-4.719 7.875-1.173 2.062-2.416 4.073-3.375 6.25-2.24 5.08-4.01 10.39-5.75 15.656-1.65 4.992-3.465 9.906-4.563 15.063-.674 3.167-.759 6.382-1.312 9.562-.418 2.405-.99 4.774-1.125 7.219-.799 14.487 1.734 29.069 5.781 42.938 2.05 7.021 4.408 14.04 7.406 20.718 2.877 6.407 6.353 12.528 10.188 18.406 2.192 3.36 4.442 6.75 7 9.844 5.76 6.967 13.3 11.992 20.594 17.188 3.035 2.162 5.963 4.461 9.062 6.531 3.426 2.289 7.015 4.354 10.688 6.219 9.011 4.576 18.681 8.202 28.562 10.375 8.439 1.855 17.144 2.694 25.781 2.531 8.315-.157 16.467-1.644 24.626-3.125 6.357-1.154 12.644-2.078 18.843-4 11.853-3.674 23.066-9.613 33.313-16.563 7.169-4.862 13.44-10.91 19.406-17.156 3.619-3.789 7.338-7.612 10.406-11.875 1.351-1.876 2.531-3.895 3.719-5.875a195.782 195.782 0 005.031-8.937c4.72-8.891 8.641-18.239 11.156-28 2.783-10.801 3.829-21.87 3.907-33a2.814 2.814 0 00-2.781-2.813c-1.533-.007-2.774 1.249-2.782 2.782-.027 10.683-.97 21.339-3.594 31.718-2.367 9.368-6.059 18.325-10.531 26.875a190.433 190.433 0 01-4.843 8.719c-1.104 1.866-2.186 3.79-3.438 5.562-2.895 4.099-6.454 7.754-9.875 11.407-5.676 6.06-11.599 12.014-18.406 16.812-10.222 7.205-21.838 13.296-33.813 16.969-5.769 1.769-11.718 2.668-17.625 3.844-5.87 1.168-11.749 2.338-17.719 2.875-10.011.9-20.283.27-30.124-1.75-5.143-1.056-10.214-2.583-15.157-4.344-6.565-2.339-12.953-5.182-19-8.656-4.706-2.704-9.018-5.976-13.469-9.063-5.608-3.889-11.301-7.648-16.312-12.312-4.338-4.039-7.776-8.912-11.062-13.813-3.86-5.754-7.363-11.774-10.282-18.062-1.51-3.255-2.821-6.603-4.062-9.969-6.206-16.831-10.53-34.924-9.75-52.969.13-3.027.966-5.937 1.312-8.937.124-1.074.146-2.176.25-3.25.147-1.513.389-3.011.688-4.5 1.097-5.463 2.994-10.668 4.656-15.969a204.053 204.053 0 013.156-9.25c.678-1.848 1.32-3.689 2.094-5.5 1.03-2.41 2.394-4.647 3.656-6.938 2.603-4.723 5.36-9.11 8.782-13.28z"
    ></path>
  </g>
</svg>
